img/arrow-12.svg

<svg fill="none" height="14" viewBox="0 0 16 14" width="16" xmlns="http://www.w3.org/2000/svg"><path d="m15.6907 7.59866c.3306-.33063.3306-.86669 0-1.19732l-5.3879-5.3879c-.33063-.330628-.86669-.330628-1.19732 0-.33063.33063-.33063.86668 0 1.19731l4.78922 4.78925-4.78922 4.7892c-.33063.3307-.33063.8667 0 1.1974.33063.3306.86669.3306 1.19732 0zm-14.1447-1.44529c-.46758 0-.846624.37905-.846624.84663s.379044.84663.846624.84663zm13.546 0h-13.546v1.69326h13.546z" fill="#fff"/></svg>

<svg width="16" height="14" viewBox="0 0 16 14" fill="none" xmlns="http://www.w3.org/2000/svg">
<path d="M15.6907 7.59866C16.0213 7.26803 16.0213 6.73197 15.6907 6.40134L10.3028 1.01344C9.97217 0.682812 9.43611 0.682812 9.10548 1.01344C8.77485 1.34407 8.77485 1.88012 9.10548 2.21075L13.8947 7L9.10548 11.7892C8.77485 12.1199 8.77485 12.6559 9.10548 12.9866C9.43611 13.3172 9.97217 13.3172 10.3028 12.9866L15.6907 7.59866ZM1.546 6.15337C1.07842 6.15337 0.699376 6.53242 0.699376 7C0.699376 7.46758 1.07842 7.84663 1.546 7.84663V6.15337ZM15.092 6.15337L1.546 6.15337V7.84663L15.092 7.84663V6.15337Z" fill="white"/>
</svg>
